X:193
T:He Lives in Me
C:Doyle Lawson
N:Transcribed by Larry Tanner
R:bluegrass
L:1/8
Q:1/4=210
M:4/4
K:C
"F"z2 cd ed ce | "G"d2 de dc Bc | "F"B2 Bc BA GB | "G"AG ED FE DE | DC B,D B,G, A,B, | 
"C"C2 CD EC DE | "F"FE FG AG Ad | "C"c2 cc cd cG | E8 | z8 | z8 | z8 | z8 | z8 | 
z8 | z8 | z8 | z8 | z8 | z8 | z8 | z8 | z8 | z8 | 


